src/assets/icons/priority-pick.svg

<svg width="48" height="50" viewBox="0 0 48 50" fill="none" xmlns="http://www.w3.org/2000/svg">
<g id="Group 1860">
<g id="Group 1796">
<g id="Group 1789">
<g id="Group 1630">
<g id="Group 755">
<rect id="Rectangle 410" y="0.990234" width="48" height="48.0022" rx="16" fill="#BFFFC8"/>
</g>
</g>
<path id="Vector" d="M36 24.9902C36 18.3612 30.629 12.9902 24 12.9902C17.371 12.9902 12 18.3612 12 24.9902C12 31.6193 17.371 36.9902 24 36.9902C30.629 36.9902 36 31.6193 36 24.9902ZM21.871 30.6031V24.9902H18.4403C17.9226 24.9902 17.6613 24.3612 18.029 23.9983L23.5887 18.4677C23.8161 18.2402 24.179 18.2402 24.4065 18.4677L29.9661 23.9983C30.3339 24.366 30.0726 24.9902 29.5548 24.9902H26.129V30.6031C26.129 30.9225 25.8677 31.1838 25.5484 31.1838H22.4516C22.1323 31.1838 21.871 30.9225 21.871 30.6031Z" fill="#077453"/>
</g>
</g>
</g>
</svg>

<svg width="48" height="50" fill="none" xmlns="http://www.w3.org/2000/svg"><rect y=".99" width="48" height="48.002" rx="16" fill="#BFFFC8"/><path d="M36 24.99c0-6.629-5.371-12-12-12s-12 5.371-12 12c0 6.63 5.371 12 12 12s12-5.37 12-12zm-14.129 5.613V24.99h-3.43c-.518 0-.78-.629-.412-.992l5.56-5.53a.575.575 0 0 1 .818 0l5.56 5.53a.58.58 0 0 1-.412.992h-3.426v5.613c0 .32-.261.58-.58.58h-3.097a.582.582 0 0 1-.581-.58z" fill="#077453"/></svg>
